X:1130
M:6/8
L:1/8
Q:3/8=120
K:G
     A>BA AGF        |cAc  de=f|dAA  AGF|G3   G2:|!
g   |fdd  gdd        |fdd  cAA |fdd  gdd|fdd  d2  !
g   |fdd  a(a/b/a/g/)|fdd  de=f|cAA  AGF|G3   G2:|

